src/lib/assets/edit_icon.svg

<svg width="76" height="73" viewBox="0 0 76 73" fill="none" xmlns="http://www.w3.org/2000/svg">
<path d="M70.0031 3.09392C66.7523 -0.0285401 61.4977 -0.0285401 58.2469 3.09392L53.7789 7.37126L68.3109 21.3297L72.7789 17.0381C76.0297 13.9156 76.0297 8.86833 72.7789 5.74587L70.0031 3.09392ZM25.5906 34.4611C24.6852 35.3308 23.9875 36.4002 23.5867 37.5836L19.193 50.2445C18.7625 51.4707 19.1039 52.8252 20.0539 53.7519C21.0039 54.6787 22.4141 54.9924 23.7055 54.5789L36.8867 50.3586C38.1039 49.9594 39.2172 49.3035 40.1375 48.4338L64.9711 24.5662L50.4242 10.5935L25.5906 34.4611V34.4611ZM14.25 9.12498C6.38281 9.12498 0 15.2558 0 22.8125V59.3125C0 66.8691 6.38281 73 14.25 73H52.25C60.1172 73 66.5 66.8691 66.5 59.3125V45.625C66.5 43.1013 64.3773 41.0625 61.75 41.0625C59.1227 41.0625 57 43.1013 57 45.625V59.3125C57 61.8361 54.8773 63.875 52.25 63.875H14.25C11.6227 63.875 9.5 61.8361 9.5 59.3125V22.8125C9.5 20.2888 11.6227 18.25 14.25 18.25H28.5C31.1273 18.25 33.25 16.2111 33.25 13.6875C33.25 11.1638 31.1273 9.12498 28.5 9.12498H14.25Z" fill="white"/>
</svg>

<svg xmlns="http://www.w3.org/2000/svg" width="76" height="73" fill="none"><path fill="#fff" d="M70.003 3.094c-3.25-3.123-8.505-3.123-11.756 0L53.779 7.37 68.31 21.33l4.468-4.292c3.25-3.122 3.25-8.17 0-11.292l-2.776-2.652ZM25.591 34.46a7.835 7.835 0 0 0-2.004 3.123l-4.394 12.66c-.43 1.227-.09 2.581.86 3.508s2.361 1.24 3.652.827l13.182-4.22a8.659 8.659 0 0 0 3.25-1.925l24.834-23.868-14.547-13.972L25.591 34.46ZM14.25 9.125C6.383 9.125 0 15.255 0 22.813v36.5C0 66.868 6.383 73 14.25 73h38c7.867 0 14.25-6.13 14.25-13.688V45.626c0-2.524-2.123-4.563-4.75-4.563S57 43.102 57 45.626v13.688c0 2.523-2.123 4.562-4.75 4.562h-38c-2.627 0-4.75-2.039-4.75-4.563v-36.5c0-2.523 2.123-4.562 4.75-4.562H28.5c2.627 0 4.75-2.039 4.75-4.563 0-2.523-2.123-4.562-4.75-4.562H14.25Z"/></svg>
